synths/iETC.svg

<svg width="480" height="480" viewBox="0 0 480 480" fill="none" xmlns="http://www.w3.org/2000/svg"><mask id="mask0-897119" maskUnits="userSpaceOnUse" x="0" y="0" width="480" height="480"><circle cx="240" cy="240" r="240" fill="url(#paint0_linear-763780)"/></mask><g mask="url(#mask0-897119)"><circle cx="240" cy="240" r="240" fill="#FF1E39"/><circle cx="240" cy="240" r="208" fill="#fff"/></g><circle cx="240" cy="240" r="184" fill="#0E052F"/><path d="M240 424c101.62 0 184-82.38 184-184S341.62 56 240 56 56 138.38 56 240s82.38 184 184 184z" fill="#328332"/><path d="M239.874 246.359l-77.292-6.635 77.28-43.723v50.358h.012zm0 51.29v79.81c-26.876-41.837-56.5-87.883-80.374-125.154a49771.062 49771.062 0 0180.374 45.356v-.012zm0-115.782l-80.374 44.85L239.874 102v79.867z" fill="#fff"/><path d="M317.161 239.724l-77.291 6.635v-50.358l77.28 43.723h.011zm-77.291 57.937a48282.48 48282.48 0 0180.362-45.356c-23.874 37.283-53.498 83.329-80.362 125.143v-79.787zm0-115.794V102l80.362 124.717-80.362-44.85z" fill="#fff" fill-opacity=".601"/><path opacity=".2" fill-rule="evenodd" clip-rule="evenodd" d="M239.87 246.36l77.28-6.635-77.28 43.412V246.36z" fill="#fff"/><path opacity=".603" fill-rule="evenodd" clip-rule="evenodd" d="M239.867 246.36l-77.291-6.635 77.291 43.412V246.36z" fill="#fff"/><defs><linearGradient id="paint0_linear-763780" x1="240" y1="0" x2="240" y2="701.818" gradientUnits="userSpaceOnUse"><stop stop-color="#08021E"/><stop offset="1" stop-color="#1F0777"/></linearGradient></defs></svg>

<svg width="480" height="480" viewBox="0 0 480 480" fill="none" xmlns="http://www.w3.org/2000/svg">
<mask id="mask0-897119" mask-type="alpha" maskUnits="userSpaceOnUse" x="0" y="0" width="480" height="480">
<circle cx="240" cy="240" r="240" fill="url(#paint0_linear-763780)"/>
</mask>
<g mask="url(#mask0-897119)">
<circle cx="240" cy="240" r="240" fill="#FF1E39"/>
<circle cx="240" cy="240" r="208" fill="white"/>
</g>
<circle cx="240" cy="240" r="184" fill="#0E052F"/>
<path d="M240 424C341.62 424 424 341.62 424 240C424 138.38 341.62 56 240 56C138.38 56 56 138.38 56 240C56 341.62 138.38 424 240 424Z" fill="#328332"/>
<path d="M239.874 246.359L162.582 239.724L239.862 196.001V246.359H239.874ZM239.874 297.649V377.459C212.998 335.622 183.374 289.576 159.5 252.305C187.675 268.175 217.092 284.769 239.874 297.661V297.649ZM239.874 181.867L159.5 226.717L239.874 102V181.867Z" fill="white"/>
<path d="M317.161 239.724L239.87 246.359V196.001L317.15 239.724H317.161ZM239.87 297.661C262.64 284.781 292.045 268.175 320.232 252.305C296.358 289.588 266.734 335.634 239.87 377.448V297.661ZM239.87 181.867V102L320.232 226.717L239.87 181.867Z" fill="white" fill-opacity="0.601"/>
<path opacity="0.2" fill-rule="evenodd" clip-rule="evenodd" d="M239.87 246.36L317.15 239.725L239.87 283.137V246.36Z" fill="white"/>
<path opacity="0.603" fill-rule="evenodd" clip-rule="evenodd" d="M239.867 246.36L162.576 239.725L239.867 283.137V246.36Z" fill="white"/>
<defs>
<linearGradient id="paint0_linear-763780" x1="240" y1="0" x2="240" y2="701.818" gradientUnits="userSpaceOnUse">
<stop stop-color="#08021E"/>
<stop offset="1" stop-color="#1F0777"/>
</linearGradient>
</defs>
</svg>
